resources/svg/major-viewport-tall.svg

<svg xmlns="http://www.w3.org/2000/svg" viewBox="0 0 20 20" fill="currentColor"><path d="m13.707 16.707-3 3a.999.999 0 0 1-1.414 0l-3-3a.997.997 0 0 1 .324-1.631 1 1 0 0 1 1.09.217l1.293 1.293v-4.586a1 1 0 0 1 2 0v4.586l1.293-1.293a1 1 0 0 1 1.414 1.414Zm0-13.414a1 1 0 0 1-1.414 1.414l-1.293-1.293v4.586a1 1 0 1 1-2 0v-4.586l-1.293 1.293a1.002 1.002 0 0 1-1.414 0 1 1 0 0 1 0-1.414l3-3a.997.997 0 0 1 1.414 0l3 3Z"/><path d="M18.5 1a1.5 1.5 0 0 1 1.5 1.5v15a1.5 1.5 0 0 1-1.5 1.5h-4.5l2-2h2v-14h-2l-2-2h4.5Zm-16.5 16h2l2 2h-4.5a1.5 1.5 0 0 1-1.5-1.5v-15a1.5 1.5 0 0 1 1.5-1.5h4.5l-2 2h-2v14Z"/></svg>

<svg xmlns="http://www.w3.org/2000/svg" viewBox="0 0 20 20" fill="currentColor"><path d="m13.707 16.707-3 3a.999.999 0 0 1-1.414 0l-3-3a.997.997 0 0 1 .324-1.631 1 1 0 0 1 1.09.217L9 16.586V12a1 1 0 0 1 2 0v4.586l1.293-1.293a1 1 0 0 1 1.414 1.414Zm0-13.414a1 1 0 0 1-1.414 1.414L11 3.414V8a1 1 0 1 1-2 0V3.414L7.707 4.707a1.002 1.002 0 0 1-1.414 0 1 1 0 0 1 0-1.414l3-3a.997.997 0 0 1 1.414 0l3 3Z" fill="#5C5F62"/><path d="M18.5 1A1.5 1.5 0 0 1 20 2.5v15a1.5 1.5 0 0 1-1.5 1.5H14l2-2h2V3h-2l-2-2h4.5ZM2 17h2l2 2H1.5A1.5 1.5 0 0 1 0 17.5v-15A1.5 1.5 0 0 1 1.5 1H6L4 3H2v14Z" fill="#5C5F62"/></svg>
